src/img/mobile-mockup.svg

<svg width="220" height="456" viewBox="0 0 220 456" fill="none" xmlns="http://www.w3.org/2000/svg">
<path fill-rule="evenodd" clip-rule="evenodd" d="M31.3199 455.989L188.724 456C205.933 456 220 441.646 220 424.085L219.956 31.9262C219.956 14.3769 205.878 0.0112495 188.68 0.0112495L31.2758 0C14.078 0 0 14.3544 0 31.9149L0.0440969 424.074C0.0440969 441.623 14.1221 455.989 31.3199 455.989ZM187.999 8.01159C201.171 8.02308 211.954 18.7514 211.954 31.8715L212 424.14C212 437.26 201.218 448 188.046 448L31.9891 447.989C18.817 447.977 8.03463 437.249 8.03463 424.129L8 31.86C8 18.7399 18.7824 8.00009 31.9545 8.00009L63.9248 8C65.0331 8 65.9336 8.8969 65.9336 10.0008V10.0123C65.9336 17.682 72.2368 23.9603 79.9368 23.9603L138.989 23.9604C146.69 23.9604 152.993 17.682 152.993 10.0124C152.993 8.90849 153.893 8.01159 155.001 8.01159H187.999Z" fill="white"/>
</svg>

<svg xmlns="http://www.w3.org/2000/svg" fill="none" viewBox="0 0 220 456"><path fill="#fff" fill-rule="evenodd" d="M31.32 455.989l157.404.011C205.933 456 220 441.646 220 424.085l-.044-392.159c0-17.55-14.078-31.915-31.276-31.915L31.276 0C14.078 0 0 14.354 0 31.915l.044 392.159c0 17.549 14.078 31.915 31.276 31.915zM187.999 8.012c13.172.011 23.955 10.74 23.955 23.86L212 424.14c0 13.12-10.782 23.86-23.954 23.86l-156.057-.011c-13.172-.012-23.954-10.74-23.954-23.86L8 31.86C8 18.74 18.782 8 31.954 8h31.97c1.11 0 2.01.897 2.01 2v.012c0 7.67 6.303 13.948 14.003 13.948h59.052c7.701 0 14.004-6.278 14.004-13.948 0-1.104.9-2 2.008-2h32.998z" clip-rule="evenodd"/></svg>
